X:1
T:Sospir ch'errando
T:Antonio Morsolino
T:Source : Primo lobro delle canzonette a tre voci---Venetia---R.Amadino---1594. Editor :André Vierendeels (11/08/17).
T:Notes : Original clefs : C1, C1, F4 Editorial accidentals above the staff 
T:Sospir ch'errando
T:©
T:©
C:Antonio Morsolino
Z:©
%%score [ 1 2 3 ]
L:1/8
Q:1/4=120
M:4/4
K:C
V:1 treble nm="Soprano 1" snm="S 1"
V:2 treble nm="Soprano 2" snm="S 2"
V:3 bass nm="Bass" snm="B"
V:1
 z2 d2 d2 d2 | d3 d d2 e2 | c2 d2 B4 |[M:2/4] B4 ::[M:4/4] e4 e2 e2 | e2 e2 e4 | d4 d4 | c4 d4- | %8
w: So- spir ch'er-|ran- do do- lo-|ro- so va-|i,|va tro- va'il|mio bel sol|ch'in ter-|r'a- do-|
w: E nel bel|pet- to suo di|ne- ve pu-|ra,|ten- ta s'ac-|cen- der poi|quel giac-|cio'un po-|
w: Che se mai|fia che si'am- mo-|lis- ca'un gior-|no.|Quel du- ro|ge- lo c'ha|d'in- tor-|no'al co-|
 d4 e4 | c4 c2 e2 | d2 c2 B4 | e8 | d8 | c4 B4 | A2 G2 A4- | A4 !fermata!B4 :| %16
w: * ro,|e dil- le|per pie- tà|quant'|ar-|do'e mo-||* ro.|
w: * co,|pur che non|man- chi'à te|le|fiam-|m'el fo-||* co.|
w: * re,|piu fe- li-|ce di me|non|pro-|vo'A- mo-||* re.|
V:2
 z2 B2 B2 B2 | B3 B B2 c2 | A2 B2 ^G4 |[M:2/4] ^G4 ::[M:4/4] c4 c2 c2 | c2 c2 c4 | B4 A4 | c8 | %8
w: So- spir ch'er-|ran- do co- lo-|ro- so va-|i,|va tro- va'il|mio bel sol|ch'in ter-|r'a-|
w: E nel bel|pet- to suo di|ne- ve pu-|ra,|ten- ta s'ac-|cen- der poi|quel giac-|cio'un|
w: Che se mai|fia che si'am- mo-|lis' ca'un gior-|no.|Quel du- ro|ge- lo- c'ha|d'in- tor-|no'al|
 B4 c4 | A4 A2 c2 | B2 A2 G4 | c4 B4 | G4 E2 F2 | G2 A2 ^F4 | G8 | ^F4 !fermata!G4 :| %16
w: do- ro,|e dil- le|per pie- tà|quant' ar-|do'e mo- *|||* ro.|
w: po- co,|pur che non|man- chi'à te|le fiam-|m'e'l fo- *|||* co.|
w: co- re,|piu fe- li-|ce di me|non pro-|vo'A- mo- *|||* re.|
V:3
 z2 G,2 G,2 G,2 | G,3 G, G,2 E,2 | F,2 D,2 E,4 |[M:2/4] E,4 ::[M:4/4] C,4 C,2 C,2 | C,2 C,2 C,4 | %6
w: So- spir ch'er-|ran- do co- lo-|ro- so va-|i,|va tro- va'il|mio bel sol|
w: E nel bel|pet- to suo di|ne- ve pu-|ra,|ten- ta s'ac-|cen- der poi|
w: Che se mai|fia che si'am- mo-|lis- ca'un gior-|no.|Quel du- ro|ge- lo- c'ha|
 G,4 F,4 | E,4 G,4- | G,4 C,4 | F,4 F,2 E,2 | G,2 A,2 E,4 | A,,4 B,,4- | B,,4 C,4- | C,4 D,4- | %14
w: ch'in ter-|t'a- do-|* ro,|e dil- le|per pie- tà|quant' ar-|* do'e|_ mo-|
w: quel giac-|cio'un po-|* co,|pur che non|man- chi'à te|le fiam-|* m'e'l|_ fo-|
w: d'in- tor-|no'al co-|* re,|piu fe- li-|ce di me|non pro-|* vo'A-|* mo-|
 D,8- | D,4 !fermata!G,,4 :| %16
w: |* ro.|
w: |* co.|
w: |* re.|

